brandFactory_export/2.Regular/Enchufe _2Regular.svg

<?xml version="1.0" encoding="UTF-8"?>
<svg width="24px" height="24px" viewBox="0 0 24 24" version="1.1" xmlns="http://www.w3.org/2000/svg" xmlns:xlink="http://www.w3.org/1999/xlink">
    <title>2.Regular/Enchufe _2Regular</title>
    <g id="Symbols" stroke="none" stroke-width="1" fill="none" fill-rule="evenodd">
        <g id="2.Regular/Enchufe-_2Regular" fill="#5CB615" fill-rule="nonzero">
            <path d="M18.307563,7.79495798 C18.307563,10.1277311 17.5142857,11.8084034 15.9445378,12.7831933 C15.7294118,12.9176471 15.5983193,13.1529412 15.5983193,13.405042 L15.5983193,15.1697479 C15.5983193,15.5663866 15.5042017,15.8554622 15.3159664,16.0268908 C15.0773109,16.2453782 14.6705882,16.292437 14.3714286,16.292437 L10.4352941,16.292437 C9.99831933,16.292437 9.67563025,16.2016807 9.47058824,16.0134454 C9.2789916,15.8453782 9.18151261,15.5630252 9.18151261,15.1697479 L9.18151261,13.4117647 C9.18151261,13.1563025 9.05042017,12.9210084 8.83193277,12.7865546 C7.2789916,11.8252101 6.48571429,10.1579832 6.46890756,7.77478992 L18.297479,7.78151261 L18.297479,7.79495798 L18.307563,7.79495798 Z M11.6857143,22.1579832 L13.1008403,22.1579832 L13.1008403,17.7647059 L11.6857143,17.7647059 L11.6857143,22.1579832 Z M8.42521008,1.91932773 C8.42521008,1.67394958 8.63361345,1.46554622 8.88235294,1.46554622 C9.12773109,1.46554622 9.33613445,1.67394958 9.33613445,1.91932773 L9.33613445,6.31260504 L8.42521008,6.31260504 L8.42521008,1.91932773 L8.42521008,1.91932773 Z M15.2722689,1.91932773 C15.2722689,1.67394958 15.4806723,1.46554622 15.7294118,1.46554622 C15.9747899,1.46554622 16.1831933,1.67394958 16.1831933,1.91932773 L16.1831933,6.31932773 L15.2722689,6.31932773 L15.2722689,1.91932773 Z M18.3815126,6.31932773 L17.6521008,6.31932773 L17.6521008,1.91932773 C17.6521008,0.860504202 16.7882353,0 15.7294118,0 C14.6705882,0 13.8067227,0.863865546 13.8067227,1.91932773 L13.8067227,6.31596639 L10.805042,6.31260504 L10.805042,1.91932773 C10.805042,0.860504202 9.94117647,0 8.88235294,0 C7.82352941,0 6.95966387,0.863865546 6.95966387,1.91932773 L6.95966387,6.31260504 L6.40840336,6.31260504 C5.64201681,6.31260504 5.01344538,6.93781513 5.01344538,7.75798319 C5.01344538,11.0890756 6.41512605,12.8705882 7.72268908,13.805042 L7.72268908,15.1731092 C7.72268908,16.2117647 8.14957983,16.8033613 8.49915966,17.1092437 C8.92605042,17.502521 9.51092437,17.7109244 10.2235294,17.7478992 L10.2235294,22.487395 C10.2235294,23.112605 10.7344538,23.6235294 11.3630252,23.6235294 L13.4369748,23.6235294 C14.0621849,23.6235294 14.5731092,23.1159664 14.5731092,22.487395 L14.5731092,17.7478992 C15.292437,17.7142857 15.8840336,17.5058824 16.3109244,17.1092437 C16.6571429,16.7966387 17.0705882,16.205042 17.0705882,15.1731092 L17.0705882,13.7983193 C18.3781513,12.8571429 19.7798319,11.0823529 19.7798319,7.79495798 L19.7798319,7.71092437 C19.7731092,6.94453782 19.1478992,6.31932773 18.3815126,6.31932773 Z" id="Enchufe-_2Regular"></path>
        </g>
    </g>
</svg>

<svg width="24" height="24" viewBox="0 0 24 24" xmlns="http://www.w3.org/2000/svg"><path d="M18.308 7.795c0 2.333-.794 4.013-2.363 4.988a.735.735 0 00-.347.622v1.765c0 .396-.094.685-.282.857-.239.218-.645.265-.945.265h-3.936c-.437 0-.76-.09-.964-.279-.192-.168-.29-.45-.29-.843v-1.758a.732.732 0 00-.35-.625c-1.552-.962-2.345-2.629-2.362-5.012l11.828.007v.013h.01zm-6.622 14.363H13.1v-4.393h-1.415v4.393zM8.426 1.919c0-.245.208-.453.456-.453a.46.46 0 01.454.453v4.394h-.91V1.919zm6.846 0c0-.245.209-.453.457-.453a.46.46 0 01.454.453v4.4h-.91v-4.4zm3.11 4.4h-.73v-4.4a1.924 1.924 0 00-3.845 0v4.397l-3.002-.003V1.919a1.924 1.924 0 00-3.845 0v4.394h-.552c-.766 0-1.395.625-1.395 1.445 0 3.331 1.402 5.113 2.71 6.047v1.368c0 1.039.427 1.63.776 1.936.427.394 1.012.602 1.725.639v4.74c0 .625.51 1.136 1.139 1.136h2.074c.625 0 1.136-.508 1.136-1.137v-4.74c.72-.033 1.311-.241 1.738-.638.346-.312.76-.904.76-1.936v-1.375c1.307-.94 2.709-2.716 2.709-6.003v-.084a1.405 1.405 0 00-1.398-1.392z" fill="#5CB615" fill-rule="nonzero"/></svg>
